assets/logo-galgar-icon.svg

<svg width="16" height="16" viewBox="0 0 16 16" fill="none" xmlns="http://www.w3.org/2000/svg">
<g clip-path="url(#clip0_90_214)">
<mask id="mask0_90_214" style="mask-type:luminance" maskUnits="userSpaceOnUse" x="-1" y="-1" width="18" height="17">
<path d="M-0.0290527 -0.0678711H16.0291V15.9903H-0.0290527V-0.0678711Z" fill="white"/>
</mask>
<g mask="url(#mask0_90_214)">
<mask id="mask1_90_214" style="mask-type:luminance" maskUnits="userSpaceOnUse" x="-4" y="-4" width="24" height="24">
<path d="M19.0725 10.2267L5.73642 19.067L-3.10388 5.73093L10.2322 -3.10938L19.0725 10.2267Z" fill="white"/>
</mask>
<g mask="url(#mask1_90_214)">
<mask id="mask2_90_214" style="mask-type:luminance" maskUnits="userSpaceOnUse" x="-4" y="-4" width="24" height="24">
<path d="M5.75522 19.0542L19.0913 10.2142L10.2513 -3.12183L-3.08508 5.71817L5.75522 19.0542Z" fill="white"/>
</mask>
<g mask="url(#mask2_90_214)">
<mask id="mask3_90_214" style="mask-type:luminance" maskUnits="userSpaceOnUse" x="-4" y="-4" width="24" height="24">
<path d="M5.75522 19.0542L19.0913 10.2142L10.2513 -3.12183L-3.08508 5.71817L5.75522 19.0542Z" fill="white"/>
</mask>
<g mask="url(#mask3_90_214)">
<path d="M12.4215 14.67C8.7434 17.108 3.76799 16.0992 1.32999 12.4215C-1.10801 8.7434 -0.0992215 3.76799 3.57854 1.32999C7.25629 -1.10801 12.232 -0.0992215 14.67 3.57854C17.108 7.2566 16.0992 12.232 12.4215 14.67ZM9.26719 9.93163C9.2484 9.94164 9.18141 9.97013 9.00621 9.98316C8.42482 10.0268 7.84617 10.0438 7.2666 10.0799C7.04623 10.0935 6.91528 10.028 6.79949 9.84555C6.51183 9.38238 6.27813 9.0444 6.10747 8.79796C5.86709 8.45059 5.73463 8.25902 5.72523 8.11928C5.71586 7.97993 5.82043 7.77247 6.01007 7.3962L6.01168 7.393C6.14051 7.13777 6.31692 6.78797 6.52729 6.31905C6.62641 6.09777 6.75039 6.01593 7.00107 6.00532C8.30115 5.94772 9.70702 5.88195 11.1835 5.79101C11.3666 5.78525 11.4782 5.56064 11.3727 5.4112C11.2732 5.26146 11.1784 5.11232 11.0841 4.96531C10.8398 4.58277 10.6091 4.22176 10.333 3.88166C10.1459 3.65128 9.75461 3.5555 9.47029 3.56399C8.2672 3.60036 7.08594 3.67462 5.89589 3.73313C5.66006 3.74495 5.45606 3.808 5.2845 3.92167C5.1102 4.03716 4.96956 4.20509 4.86377 4.42485C4.37847 5.43575 3.87499 6.47515 3.32361 7.60246C3.10809 8.04319 3.14326 8.46453 3.43061 8.89102C4.06959 9.83797 4.71402 10.8101 5.4009 11.8628C5.66461 12.2669 6.01199 12.4609 6.43272 12.4397C7.41399 12.3901 8.39466 12.3342 9.37563 12.2782C9.37828 12.2781 9.38094 12.2779 9.38359 12.2778L10.4445 12.2175C10.4876 12.215 10.5294 12.2014 10.5658 12.1771L10.8352 11.9986C11.0686 11.7152 11.2423 11.1941 11.4387 10.8543C11.4427 10.8463 11.4467 10.8384 11.4507 10.8304C11.8565 10.0136 12.2756 9.17016 12.6694 8.32964C13.0701 7.54911 12.3936 6.49213 11.5148 6.54669C10.3075 6.58246 9.08411 6.65793 7.90133 6.73129L7.53304 6.75372C7.199 6.80101 6.98227 7.072 6.888 7.33965C6.54517 8.04319 6.66006 8.61245 7.24932 9.13049C7.4124 9.27356 7.66035 9.2872 7.79373 9.28265C8.39603 9.26204 9.03349 9.22779 9.66883 9.19687C9.53121 9.4715 9.41087 9.71005 9.26719 9.93163ZM7.57154 8.76189C7.5873 8.77311 7.66066 8.79705 7.77645 8.79342C8.30894 8.77447 8.848 8.74748 9.41788 8.71894C9.42251 8.71871 9.42715 8.71848 9.43179 8.71824L10.0662 8.68672C10.2487 8.67187 10.3857 8.88466 10.2954 9.0444C10.0877 9.44149 9.90466 9.85312 9.66762 10.2144C9.5685 10.3657 9.36995 10.4475 9.04289 10.4718C8.45635 10.516 7.87981 10.5327 7.29691 10.5691C6.90195 10.5936 6.59519 10.4388 6.38452 10.1062C6.10484 9.65579 5.87685 9.32598 5.70967 9.08413C5.70798 9.08169 5.7063 9.07926 5.70462 9.07683C5.10293 8.20718 5.09687 8.11837 5.57428 7.17263C5.70796 6.90771 5.87437 6.57761 6.07988 6.11868C6.25357 5.73039 6.54851 5.53397 6.97955 5.51608C8.15323 5.46394 9.4139 5.40544 10.7337 5.32754C10.4797 4.93106 10.2326 4.53518 9.95225 4.19084C9.89677 4.12264 9.68065 4.04807 9.48453 4.05413C8.65855 4.07858 7.81907 4.12327 7.00592 4.16656C6.99248 4.16728 6.97904 4.168 6.9656 4.16871C6.96209 4.1689 6.95858 4.16908 6.95506 4.16927C6.60969 4.18757 6.26461 4.20586 5.91923 4.22267C5.62551 4.23752 5.43606 4.36483 5.30511 4.63703C4.81951 5.64885 4.31512 6.68946 3.76344 7.81798C3.62643 8.09867 3.64825 8.33783 3.83649 8.6173C4.47668 9.56668 5.12263 10.5406 5.81071 11.5952C6.02896 11.9298 6.256 11.9583 6.40756 11.9507C7.39058 11.901 8.37299 11.8449 9.3554 11.7889L10.3502 11.7322L10.5091 11.627C10.6719 11.2963 10.8358 10.9662 10.9998 10.6364C11.4081 9.81493 11.8301 8.96529 12.2256 8.1217C12.4654 7.65732 12.055 7.00319 11.5288 7.03653C10.3296 7.07169 9.11018 7.14717 7.93134 7.22022L7.57093 7.24174C7.53221 7.25298 7.44417 7.33831 7.41285 7.36867L7.41058 7.37087C7.3836 7.41422 7.3542 7.50212 7.32813 7.55426C7.08443 8.05471 7.15293 8.3936 7.57154 8.76189Z" fill="black"/>
<path fill-rule="evenodd" clip-rule="evenodd" d="M9.26719 9.93163C9.2484 9.94164 9.18141 9.97013 9.00621 9.98316C8.42482 10.0268 7.84617 10.0438 7.2666 10.0799C7.04623 10.0935 6.91528 10.028 6.79949 9.84555C6.51183 9.38238 6.27813 9.0444 6.10747 8.79796C5.86709 8.45059 5.73463 8.25902 5.72523 8.11928C5.71586 7.97993 5.82043 7.77247 6.01007 7.3962L6.01168 7.393C6.14051 7.13777 6.31692 6.78797 6.52729 6.31905C6.62641 6.09777 6.75039 6.01593 7.00107 6.00532C8.30115 5.94772 9.70702 5.88195 11.1835 5.79101C11.3666 5.78525 11.4782 5.56064 11.3727 5.4112C11.2732 5.26146 11.1784 5.11232 11.0841 4.96531C10.8398 4.58277 10.6091 4.22176 10.333 3.88166C10.1459 3.65128 9.75461 3.5555 9.47029 3.56399C8.2672 3.60036 7.08594 3.67462 5.89589 3.73313C5.66006 3.74495 5.45606 3.808 5.2845 3.92167C5.1102 4.03716 4.96956 4.20509 4.86377 4.42485C4.37847 5.43575 3.87499 6.47515 3.32361 7.60246C3.10809 8.04319 3.14326 8.46453 3.43061 8.89102C4.06959 9.83797 4.71402 10.8101 5.4009 11.8628C5.66461 12.2669 6.01199 12.4609 6.43272 12.4397C7.41399 12.3901 8.39466 12.3342 9.37563 12.2782L9.38359 12.2778L10.4445 12.2175C10.4876 12.215 10.5294 12.2014 10.5658 12.1771L10.8352 11.9986C11.0686 11.7152 11.2423 11.1941 11.4387 10.8543L11.4507 10.8304C11.8565 10.0136 12.2756 9.17016 12.6694 8.32964C13.0701 7.54911 12.3936 6.49213 11.5148 6.54669C10.3075 6.58246 9.08411 6.65793 7.90133 6.73129L7.53304 6.75372C7.199 6.80101 6.98227 7.072 6.888 7.33965C6.54517 8.04319 6.66006 8.61245 7.24932 9.13049C7.4124 9.27356 7.66035 9.2872 7.79373 9.28265C8.39603 9.26204 9.03349 9.22779 9.66883 9.19687C9.53121 9.4715 9.41087 9.71005 9.26719 9.93163ZM7.77645 8.79342C7.66066 8.79705 7.5873 8.77311 7.57154 8.76189C7.15293 8.3936 7.08443 8.05471 7.32813 7.55426C7.3542 7.50212 7.3836 7.41422 7.41058 7.37087L7.41285 7.36867C7.44417 7.33831 7.53221 7.25298 7.57093 7.24174L7.93134 7.22022C9.11018 7.14717 10.3296 7.07169 11.5288 7.03653C12.055 7.00319 12.4654 7.65732 12.2256 8.1217C11.8301 8.96529 11.4081 9.81493 10.9998 10.6364C10.8358 10.9662 10.6719 11.2963 10.5091 11.627L10.3502 11.7322L9.3554 11.7889C8.37299 11.8449 7.39058 11.901 6.40756 11.9507C6.256 11.9583 6.02896 11.9298 5.81071 11.5952C5.12263 10.5406 4.47668 9.56668 3.83649 8.6173C3.64825 8.33783 3.62643 8.09867 3.76344 7.81798C4.31512 6.68946 4.81951 5.64885 5.30511 4.63703C5.43606 4.36483 5.62551 4.23752 5.91923 4.22267C6.26461 4.20586 6.60969 4.18757 6.95506 4.16927L6.9656 4.16871L7.00592 4.16656C7.81907 4.12327 8.65855 4.07858 9.48453 4.05413C9.68065 4.04807 9.89677 4.12264 9.95225 4.19084C10.2326 4.53518 10.4797 4.93106 10.7337 5.32754C9.4139 5.40544 8.15323 5.46394 6.97955 5.51608C6.54851 5.53397 6.25357 5.73039 6.07988 6.11868C5.87437 6.57761 5.70796 6.90771 5.57428 7.17263C5.09687 8.11837 5.10293 8.20718 5.70462 9.07683L5.70967 9.08413C5.87685 9.32598 6.10484 9.65579 6.38452 10.1062C6.59519 10.4388 6.90195 10.5936 7.29691 10.5691C7.87981 10.5327 8.45635 10.516 9.04289 10.4718C9.36995 10.4475 9.5685 10.3657 9.66762 10.2144C9.90466 9.85312 10.0877 9.44149 10.2954 9.0444C10.3857 8.88466 10.2487 8.67187 10.0662 8.68672L9.43179 8.71824L9.41788 8.71894C8.848 8.74748 8.30894 8.77447 7.77645 8.79342Z" fill="black"/>
<path fill-rule="evenodd" clip-rule="evenodd" d="M9.6008 9.95786C9.57731 9.97036 9.4936 10.006 9.27466 10.0223C8.54814 10.0768 7.82503 10.098 7.10079 10.1431C6.82541 10.1601 6.66177 10.0783 6.51708 9.85028C6.15761 9.27149 5.86556 8.84914 5.6523 8.54119C5.35192 8.1071 5.18639 7.8677 5.17465 7.69308C5.16294 7.51895 5.29361 7.2597 5.53059 6.7895L5.5326 6.7855C5.69359 6.46656 5.91404 6.02944 6.17692 5.44345C6.30079 5.16694 6.45571 5.06467 6.76897 5.05141C8.39359 4.97944 10.1504 4.89724 11.9955 4.78361C12.2243 4.77641 12.3637 4.49573 12.2319 4.30898C12.1076 4.12186 11.9891 3.9355 11.8713 3.75178C11.5659 3.27375 11.2777 2.82262 10.9326 2.39762C10.6989 2.10974 10.2099 1.99004 9.85458 2.00064C8.35117 2.0461 6.87503 2.1389 5.38791 2.21201C5.09321 2.22678 4.83829 2.30557 4.62389 2.44762C4.40609 2.59193 4.23033 2.80178 4.09813 3.0764C3.49169 4.33966 2.86252 5.63853 2.17351 7.04725C1.90419 7.598 1.94813 8.12452 2.30722 8.65748C3.10571 9.84081 3.91101 11.0556 4.76935 12.3711C5.09889 12.876 5.53298 13.1185 6.05874 13.092C7.28497 13.03 8.51045 12.9601 9.7363 12.8902L9.74625 12.8897L11.072 12.8143C11.1258 12.8113 11.1781 12.7942 11.2235 12.7639L11.5603 12.5408C11.8519 12.1866 12.069 11.5355 12.3144 11.1109L12.3293 11.0809C12.8364 10.0603 13.3602 9.00629 13.8523 7.95596C14.3531 6.98058 13.5076 5.65974 12.4095 5.72792C10.9008 5.77262 9.37201 5.86694 7.89397 5.95861L7.43374 5.98664C7.01632 6.04573 6.74549 6.38437 6.62768 6.71884C6.19927 7.598 6.34283 8.30937 7.0792 8.95672C7.28299 9.13551 7.59284 9.15255 7.7595 9.14687C8.51216 9.12111 9.30875 9.07831 10.1027 9.03967C9.93072 9.38286 9.78034 9.68096 9.6008 9.95786ZM7.73791 8.53551C7.59321 8.54005 7.50155 8.51013 7.48185 8.49611C6.95874 8.03588 6.87314 7.6124 7.17768 6.98702C7.21026 6.92187 7.247 6.81202 7.28071 6.75785L7.28355 6.7551C7.32269 6.71716 7.4327 6.61053 7.48109 6.59649L7.93147 6.56959C9.40458 6.4783 10.9284 6.38399 12.4269 6.34005C13.0845 6.29838 13.5974 7.11581 13.2978 7.69611C12.8035 8.75028 12.2762 9.81202 11.766 10.8385C11.561 11.2507 11.3561 11.6632 11.1527 12.0764L10.9542 12.2079L9.71102 12.2787C8.48337 12.3488 7.25571 12.4188 6.0273 12.481C5.83791 12.4904 5.5542 12.4548 5.28147 12.0366C4.42162 10.7188 3.61442 9.5018 2.81442 8.31543C2.57919 7.96619 2.55192 7.66732 2.72313 7.31656C3.41252 5.90633 4.04283 4.60595 4.64965 3.34156C4.81328 3.0014 5.05003 2.84231 5.41707 2.82375C5.84867 2.80275 6.2799 2.7799 6.71148 2.75703L6.72465 2.75633L6.77504 2.75365C7.79117 2.69955 8.84021 2.6437 9.87239 2.61315C10.1175 2.60557 10.3875 2.69875 10.4569 2.78398C10.8072 3.21428 11.1159 3.70898 11.4334 4.20444C9.78413 4.30179 8.20875 4.37489 6.74208 4.44004C6.20344 4.46239 5.83488 4.70785 5.61783 5.19308C5.36101 5.76656 5.15306 6.17906 4.98601 6.51012C4.38942 7.69194 4.397 7.80293 5.14889 8.88967L5.1552 8.89879C5.36411 9.20101 5.64901 9.61316 5.99851 10.176C6.26177 10.5916 6.64511 10.7851 7.13867 10.7545C7.86708 10.709 8.58754 10.6882 9.32049 10.6329C9.7292 10.6026 9.97731 10.5003 10.1012 10.3113C10.3974 9.85975 10.6262 9.34536 10.8856 8.84914C10.9985 8.64952 10.8273 8.38361 10.5993 8.40217L9.80648 8.44157L9.7891 8.44244C9.07696 8.4781 8.40334 8.51183 7.73791 8.53551Z" fill="white"/>
</g>
</g>
</g>
</g>
</g>
<defs>
<clipPath id="clip0_90_214">
<rect width="16" height="16" fill="white"/>
</clipPath>
</defs>
</svg>

<svg xmlns="http://www.w3.org/2000/svg" width="16" height="16" fill="none"><g clip-path="url(#a)"><mask id="b" width="18" height="17" x="-1" y="-1" maskUnits="userSpaceOnUse" style="mask-type:luminance"><path fill="#fff" d="M-.03-.068h16.06V15.99H-.03z"/></mask><g mask="url(#b)"><mask id="c" width="24" height="24" x="-4" y="-4" maskUnits="userSpaceOnUse" style="mask-type:luminance"><path fill="#fff" d="m19.073 10.227-13.337 8.84-8.84-13.336 13.336-8.84z"/></mask><g mask="url(#c)"><mask id="d" width="24" height="24" x="-4" y="-4" maskUnits="userSpaceOnUse" style="mask-type:luminance"><path fill="#fff" d="m5.755 19.054 13.336-8.84-8.84-13.336-13.336 8.84z"/></mask><g mask="url(#d)"><mask id="e" width="24" height="24" x="-4" y="-4" maskUnits="userSpaceOnUse" style="mask-type:luminance"><path fill="#fff" d="m5.755 19.054 13.336-8.84-8.84-13.336-13.336 8.84z"/></mask><g mask="url(#e)"><path fill="#000" d="M12.422 14.67C8.743 17.108 3.768 16.1 1.33 12.422S-.1 3.768 3.579 1.33C7.256-1.108 12.232-.1 14.67 3.579c2.438 3.678 1.43 8.653-2.248 11.091M9.267 9.932c-.019.01-.086.038-.26.051-.582.044-1.16.06-1.74.097-.22.014-.352-.052-.468-.234a24 24 0 0 0-.692-1.048c-.24-.347-.372-.539-.382-.679s.095-.347.285-.723l.002-.003c.129-.255.305-.605.515-1.074.1-.221.223-.303.474-.314 1.3-.057 2.706-.123 4.183-.214.183-.006.294-.23.189-.38q-.149-.225-.289-.446a12 12 0 0 0-.751-1.083c-.187-.23-.578-.327-.863-.318-1.203.036-2.384.11-3.574.17q-.354.016-.611.188a1.2 1.2 0 0 0-.421.503c-.486 1.01-.989 2.05-1.54 3.177-.216.441-.18.863.107 1.289.639.947 1.283 1.92 1.97 2.972.264.404.611.598 1.032.577q1.472-.077 2.943-.162h.008l1.06-.06a.24.24 0 0 0 .122-.04l.27-.18c.233-.283.406-.804.603-1.144l.012-.024c.406-.816.825-1.66 1.218-2.5.401-.78-.275-1.838-1.154-1.783-1.208.035-2.43.11-3.614.184l-.368.023c-.334.047-.55.318-.645.586-.343.703-.228 1.272.361 1.79.163.144.411.157.545.153.602-.021 1.24-.055 1.875-.086a8 8 0 0 1-.402.735m-1.695-1.17c.015.011.089.035.204.031.533-.019 1.072-.046 1.642-.074h.014l.634-.032c.183-.015.32.198.23.357-.208.397-.391.81-.628 1.17-.1.152-.298.233-.625.258-.587.044-1.163.06-1.746.097a.94.94 0 0 1-.912-.463c-.28-.45-.508-.78-.675-1.022l-.005-.007c-.602-.87-.608-.959-.13-1.904.133-.265.3-.595.505-1.054.174-.389.469-.585.9-.603 1.173-.052 2.434-.11 3.754-.188-.254-.397-.501-.793-.782-1.137-.055-.068-.271-.143-.467-.137-.826.025-1.666.07-2.48.113l-.04.002h-.01q-.517.029-1.036.054c-.293.015-.483.142-.614.414-.485 1.012-.99 2.052-1.542 3.181-.137.28-.115.52.073.8.64.949 1.287 1.923 1.975 2.977.218.335.445.363.597.356q1.474-.077 2.947-.162l.995-.057.16-.105q.244-.495.49-.99c.408-.822.83-1.672 1.226-2.515.24-.465-.171-1.119-.697-1.085-1.2.035-2.419.11-3.598.183l-.36.022a.7.7 0 0 0-.158.127l-.002.002c-.027.043-.057.131-.083.183-.244.5-.175.84.244 1.208"/><path fill="#000" fill-rule="evenodd" d="M9.267 9.932c-.019.01-.086.038-.26.051-.582.044-1.16.06-1.74.097-.22.014-.352-.052-.468-.234a24 24 0 0 0-.692-1.048c-.24-.347-.372-.539-.382-.679s.095-.347.285-.723l.002-.003c.129-.255.305-.605.515-1.074.1-.221.223-.303.474-.314 1.3-.057 2.706-.123 4.183-.214.183-.006.294-.23.189-.38q-.149-.225-.289-.446a12 12 0 0 0-.751-1.083c-.187-.23-.578-.327-.863-.318-1.203.036-2.384.11-3.574.17q-.354.016-.611.188a1.2 1.2 0 0 0-.421.503c-.486 1.01-.989 2.05-1.54 3.177-.216.441-.18.863.107 1.289.639.947 1.283 1.92 1.97 2.972.264.404.611.598 1.032.577q1.472-.077 2.943-.162h.008l1.06-.06a.24.24 0 0 0 .122-.04l.27-.18c.233-.283.406-.804.603-1.144l.012-.024c.406-.816.825-1.66 1.218-2.5.401-.78-.275-1.838-1.154-1.783-1.208.035-2.43.11-3.614.184l-.368.023c-.334.047-.55.318-.645.586-.343.703-.228 1.272.361 1.79.163.144.411.157.545.153.602-.021 1.24-.055 1.875-.086a8 8 0 0 1-.402.735m-1.49-1.139a.4.4 0 0 1-.205-.031c-.42-.368-.488-.707-.244-1.208.026-.052.056-.14.083-.183l.002-.002a.7.7 0 0 1 .158-.127l.36-.022c1.18-.073 2.399-.148 3.598-.183.526-.034.936.62.697 1.085-.396.843-.818 1.693-1.226 2.514q-.246.495-.49.991l-.16.105-.995.057q-1.473.086-2.947.162c-.152.007-.379-.021-.597-.356a233 233 0 0 0-1.975-2.978c-.188-.28-.21-.518-.073-.799.552-1.129 1.057-2.17 1.542-3.181.131-.272.32-.4.614-.414q.518-.026 1.036-.054h.01l.04-.002c.814-.044 1.654-.088 2.48-.113.196-.006.412.069.467.137.28.344.528.74.782 1.137-1.32.077-2.58.136-3.754.188-.431.018-.726.214-.9.603-.206.459-.372.789-.506 1.054-.477.945-.471 1.034.13 1.904l.006.007c.167.242.395.572.675 1.022.21.333.517.488.912.463.583-.036 1.16-.053 1.746-.097.327-.024.526-.106.625-.258.237-.36.42-.773.627-1.17.09-.16-.046-.372-.229-.357l-.634.031h-.014c-.57.03-1.11.056-1.642.075" clip-rule="evenodd"/><path fill="#fff" fill-rule="evenodd" d="M9.6 9.958c-.023.012-.106.048-.325.064-.727.055-1.45.076-2.174.121-.276.017-.44-.065-.584-.293a29 29 0 0 0-.865-1.309c-.3-.434-.466-.673-.477-.848-.012-.174.119-.433.356-.903l.002-.005c.16-.318.381-.756.644-1.342.124-.276.279-.378.592-.392 1.625-.072 3.381-.154 5.227-.267.228-.008.368-.288.236-.475q-.185-.28-.36-.557c-.306-.478-.594-.93-.94-1.354C10.7 2.11 10.21 1.99 9.856 2c-1.504.045-2.98.138-4.467.211q-.443.023-.764.236a1.53 1.53 0 0 0-.526.628 597 597 0 0 1-1.924 3.971c-.27.551-.226 1.078.133 1.61a286 286 0 0 1 2.462 3.714c.33.505.764.747 1.29.721 1.226-.062 2.451-.132 3.677-.202h.01l1.326-.076a.3.3 0 0 0 .152-.05l.336-.223c.292-.354.509-1.005.754-1.43l.015-.03c.507-1.02 1.031-2.075 1.523-3.125.501-.975-.344-2.296-1.443-2.228-1.508.045-3.037.139-4.515.23l-.46.029c-.418.059-.689.397-.806.732-.429.879-.285 1.59.451 2.238.204.179.514.196.68.19.753-.026 1.55-.069 2.344-.107a10 10 0 0 1-.502.918M7.739 8.536a.54.54 0 0 1-.256-.04c-.523-.46-.609-.884-.304-1.509.032-.065.069-.175.103-.23l.003-.002c.039-.038.149-.144.197-.159l.45-.026c1.474-.092 2.997-.186 4.496-.23.658-.042 1.17.776.87 1.356a154 154 0 0 1-1.531 3.143q-.308.618-.613 1.237l-.199.132-1.243.07q-1.841.107-3.684.203c-.19.01-.473-.026-.746-.444a292 292 0 0 0-2.467-3.722c-.235-.349-.262-.648-.09-.998.689-1.41 1.319-2.711 1.926-3.975.163-.34.4-.5.767-.518q.648-.032 1.294-.067h.014l.05-.003c1.016-.054 2.065-.11 3.097-.14.245-.008.515.085.585.17.35.43.659.925.976 1.42-1.649.098-3.224.17-4.69.236-.54.022-.908.268-1.125.753-.257.574-.465.986-.632 1.317-.597 1.182-.589 1.293.163 2.38l.006.009c.21.302.494.714.844 1.277.263.416.646.61 1.14.579.728-.046 1.449-.067 2.181-.122.41-.03.657-.133.781-.322.296-.451.525-.966.785-1.462.113-.2-.059-.465-.287-.447l-.793.04H9.79c-.712.036-1.386.07-2.051.094" clip-rule="evenodd"/></g></g></g></g></g><defs><clipPath id="a"><path fill="#fff" d="M0 0h16v16H0z"/></clipPath></defs></svg>
